icons/mobile/24/svg/extension-24.svg

<svg width="24" height="24" viewBox="0 0 24 24" fill="none" xmlns="http://www.w3.org/2000/svg">
<path fill-rule="evenodd" clip-rule="evenodd" d="M12.001 3.00098C13.8166 3.00098 15.293 4.46931 15.293 6.28516V7.19824C15.9004 7.24019 16.5329 7.29023 17.1865 7.3623C18.7889 7.53834 19.999 8.90148 19.999 10.5049V18.5469C19.999 20.1217 18.8355 21.4843 17.2471 21.6797C15.6719 21.8737 13.9129 22.001 12 22.001C10.4608 22.001 8.69896 21.9185 6.76367 21.6807C5.17637 21.4861 3.99764 20.1251 3.99902 18.542L4.00195 16.7178L4.00684 16.6279C4.05239 16.1874 4.42456 15.8438 4.87695 15.8438H6.70508C7.46321 15.8437 8.07302 15.2324 8.07324 14.4834C8.07324 13.7342 7.46335 13.1221 6.70508 13.1221H4.87695C4.39415 13.122 4.00254 12.7308 4.00195 12.248L4 10.4902C3.99885 8.88478 5.19819 7.54375 6.78711 7.34961L7.44434 7.27441C7.85465 7.2307 8.27645 7.19256 8.70899 7.15918V6.28613C8.70899 4.46954 10.1851 3.001 12.001 3.00098ZM12.001 4.75098C11.1469 4.751 10.459 5.44076 10.459 6.28613V7.97559C10.459 8.43913 10.0975 8.82273 9.63477 8.84961C8.93924 8.89 8.27013 8.94643 7.62988 9.01465L6.99902 9.08691C6.28019 9.17483 5.74939 9.776 5.75 10.4883L5.75098 11.3721H6.70508C8.42476 11.3721 9.82324 12.7626 9.82324 14.4834C9.82302 16.204 8.42462 17.5937 6.70508 17.5938H5.75098L5.74902 18.5439C5.74851 19.2548 6.27993 19.858 6.97656 19.9434L7.66504 20.0225C9.25245 20.1905 10.7079 20.251 12 20.251C13.8351 20.251 15.5224 20.1284 17.0332 19.9424L17.1602 19.9209C17.7863 19.783 18.249 19.2156 18.249 18.5469V10.5049C18.249 9.83328 17.7712 9.25594 17.127 9.12207L16.9951 9.10156C16.0824 9.00091 15.2059 8.9392 14.3672 8.89062C13.9045 8.8637 13.543 8.48012 13.543 8.0166V6.28516C13.543 5.441 12.8553 4.75098 12.001 4.75098Z" fill="black"/>
</svg>

<!-- This Source Code Form is subject to the terms of the Mozilla Public
   - License, v. 2.0. If a copy of the MPL was not distributed with this
   - file, You can obtain one at http://mozilla.org/MPL/2.0/. -->
<svg xmlns="http://www.w3.org/2000/svg" width="24" height="24" fill="none" viewBox="0 0 24 24">
    <path fill="#000" fill-rule="evenodd" d="M12.001 3.001a3.29 3.29 0 0 1 3.292 3.284v.913c.607.042 1.24.092 1.893.164A3.165 3.165 0 0 1 20 10.505v8.042c0 1.575-1.163 2.937-2.752 3.133a43 43 0 0 1-10.483 0A3.16 3.16 0 0 1 4 18.542l.003-1.824.005-.09a.875.875 0 0 1 .87-.784h1.828c.758 0 1.368-.612 1.368-1.36 0-.75-.61-1.362-1.368-1.362H4.877a.875.875 0 0 1-.875-.874L4 10.49a3.163 3.163 0 0 1 2.787-3.14l.657-.076Q8.06 7.21 8.71 7.16v-.873a3.29 3.29 0 0 1 3.292-3.285m0 1.75c-.854 0-1.542.69-1.542 1.535v1.69a.875.875 0 0 1-.824.874 42 42 0 0 0-2.005.165L7 9.088a1.41 1.41 0 0 0-1.249 1.401l.001.884h.954c1.72 0 3.118 1.39 3.118 3.111s-1.398 3.11-3.118 3.11h-.954l-.002.95c0 .712.53 1.315 1.228 1.4l.688.08a41.2 41.2 0 0 0 9.368-.08l.127-.022a1.4 1.4 0 0 0 1.089-1.374v-8.042c0-.672-.478-1.25-1.122-1.383l-.132-.02a50 50 0 0 0-2.628-.211.875.875 0 0 1-.824-.874V6.285c0-.844-.688-1.534-1.542-1.534" clip-rule="evenodd" />
</svg>
